dist/images/AndyCatch-M.svg

<svg width="376" height="155" viewBox="0 0 376 155" fill="none" xmlns="http://www.w3.org/2000/svg">
<path d="M37.0953 108.398C39.4922 108.398 42.0032 110.109 42.4598 114.671H71.7936V81.1405H43.9436V112.504H42.8022C40.5194 85.5884 35.9539 80 23.2844 80C6.62008 80 0 93.4577 0 117.522C0 147.174 17.5774 154.131 36.7528 154.131C64.9452 154.131 73.0491 138.735 71.7936 115.811H70.6522C70.6522 121.856 69.6249 123.68 49.4223 123.68C34.6983 123.68 32.5297 120.259 32.5297 114.1C32.5297 110.451 33.8994 108.398 37.0953 108.398Z" fill="#F0FFF0"/>
<path d="M102.125 129.497C96.19 126.76 93.3365 123.795 92.6516 119.917H103.837L105.549 122.768C106.348 124.137 106.805 125.391 106.805 126.874C106.805 128.356 106.12 129.497 104.408 129.497V152.991H149.379V128.356C148.009 127.9 146.754 126.76 144.471 122.768L137.623 111.021C136.938 109.881 136.709 108.626 136.709 106.003V81.1405H80.4387V105.661H90.0264C91.9668 105.661 93.3365 107.029 93.3365 108.74C93.3365 110.337 92.4234 111.819 91.3961 113.188C84.6619 122.198 77.6994 126.988 73.1338 128.356V152.991H102.125V129.497ZM92.5375 118.206C92.5375 115.127 93.1082 113.188 94.0213 111.591L96.3041 107.372L103.152 118.776H92.5375C92.5375 118.548 92.5375 118.434 92.5375 118.206Z" fill="#F0FFF0"/>
<path d="M212.344 81.1405H146.143V118.776H147.284V113.986C147.284 108.626 150.366 106.003 160.867 105.661V121.628C160.867 128.014 160.981 128.356 151.964 128.356V152.991H206.637V128.356C197.391 128.356 197.505 128.014 197.505 121.628V105.661C208.006 106.003 211.202 108.626 211.202 113.986V118.776H212.344V81.1405Z" fill="#F0FFF0"/>
<path d="M251.106 108.398C253.503 108.398 256.014 110.109 256.471 114.671H285.805V81.1405H257.955V112.504H256.813C254.531 85.5884 249.965 80 237.295 80C220.631 80 214.011 93.4577 214.011 117.522C214.011 147.174 231.589 154.131 250.764 154.131C278.956 154.131 287.06 138.735 285.805 115.811H284.663C284.663 121.856 283.636 123.68 263.433 123.68C248.709 123.68 246.541 120.259 246.541 114.1C246.541 110.451 247.91 108.398 251.106 108.398Z" fill="#F0FFF0"/>
<path d="M336.763 121.628C336.763 128.014 336.878 128.356 332.883 128.356V152.991H375V128.356C367.581 128.356 367.695 128.014 367.695 121.628V112.39C367.695 106.003 367.581 105.661 375 105.661V81.1405H332.883V105.661C336.878 105.661 336.763 106.003 336.763 112.39V115.925H326.719V112.39C326.719 106.003 326.605 105.661 330.6 105.661V81.1405H288.482V105.661C295.902 105.661 295.787 106.003 295.787 112.39V121.628C295.787 128.014 295.902 128.356 288.482 128.356V152.991H330.6V128.356C326.605 128.356 326.719 128.014 326.719 121.628V117.066H336.763V121.628Z" fill="#F0FFF0"/>
<path d="M29.9914 48.3564C24.0561 45.6193 21.2026 42.654 20.5178 38.7764H31.7035L33.4155 41.6276C34.2145 42.9962 34.6711 44.2507 34.6711 45.7333C34.6711 47.216 33.9862 48.3564 32.2742 48.3564V71.8504H77.245V47.216C75.8753 46.7598 74.6198 45.6193 72.337 41.6276L65.4887 29.8806C64.8038 28.7402 64.5756 27.4856 64.5756 24.8625V0H8.30491V24.5204H17.8926C19.833 24.5204 21.2026 25.8889 21.2026 27.5997C21.2026 29.1963 20.2895 30.679 19.2623 32.0476C12.5281 41.0574 5.56557 45.8474 1 47.216V71.8504H29.9914V48.3564ZM20.4037 37.0657C20.4037 33.9864 20.9744 32.0476 21.8875 30.4509L24.1703 26.2311L31.0186 37.6359H20.4037C20.4037 37.4078 20.4037 37.2938 20.4037 37.0657Z" fill="#F0FFF0"/>
<path d="M129.291 47.216C115.594 40.4871 107.604 34.2145 106.805 26.003L127.579 39.4607C130.775 41.5136 131.574 43.5664 131.574 47.216V71.8504H170.609V36.8376C170.609 28.0559 172.55 24.8625 176.545 24.4063V0H146.982V24.5204C156.228 26.9154 169.125 36.4954 169.468 44.5928V45.3912H169.354L149.836 32.2756C145.613 29.4244 144.7 28.9682 144.7 24.4063V0H98.245V24.5204C105.664 24.5204 105.55 24.8625 105.55 31.1352V33.4161C105.55 41.7416 103.495 46.5317 98.245 47.216V71.8504H129.291V47.216Z" fill="#F0FFF0"/>
<path d="M238.064 24.5204C244.342 24.5204 246.168 26.5732 246.168 35.9252C246.168 45.8474 241.831 47.216 237.493 47.216H235.781V24.5204H238.064ZM240.575 71.8504C268.653 71.8504 278.926 60.2175 278.926 35.9252C278.926 12.6593 267.968 0 238.178 0H197.545V24.5204C204.964 24.5204 204.849 24.8625 204.849 31.2492V40.4871C204.849 46.8738 204.964 47.216 197.545 47.216V71.8504H240.575Z" fill="#F0FFF0"/>
<path d="M361.219 71.8504V47.216C353.914 47.216 353.914 46.8738 353.914 40.259C361.447 32.9599 372.404 26.2311 375.029 24.5204V0H349.348V24.5204C353.571 25.2047 357.68 27.9418 357.68 31.8195C357.68 34.1004 356.311 36.8376 352.886 39.6888L343.413 31.2492C342.271 30.2228 341.701 29.0823 341.701 28.0559C341.701 26.117 343.641 24.5204 347.065 24.5204V0H299.926V24.5204C302.094 24.7485 304.263 25.8889 307.687 29.6525L317.275 40.145C317.275 46.8738 317.389 47.216 309.97 47.216V71.8504H361.219Z" fill="#F0FFF0"/>
</svg>

<svg width="376" height="155" fill="none" xmlns="http://www.w3.org/2000/svg"><path d="M37.095 108.398c2.397 0 4.908 1.711 5.365 6.273h29.334v-33.53h-27.85v31.363h-1.142C40.52 85.588 35.954 80 23.284 80 6.62 80 0 93.458 0 117.522c0 29.652 17.577 36.609 36.753 36.609 28.192 0 36.296-15.396 35.04-38.32h-1.14c0 6.045-1.028 7.869-21.23 7.869-14.725 0-16.893-3.421-16.893-9.58 0-3.649 1.37-5.702 4.565-5.702zm65.03 21.099c-5.935-2.737-8.788-5.702-9.473-9.58h11.185l1.712 2.851c.799 1.369 1.256 2.623 1.256 4.106 0 1.482-.685 2.623-2.397 2.623v23.494h44.971v-24.635c-1.37-.456-2.625-1.596-4.908-5.588l-6.848-11.747c-.685-1.14-.914-2.395-.914-5.018V81.141h-56.27v24.52h9.587c1.94 0 3.31 1.368 3.31 3.079 0 1.597-.913 3.079-1.94 4.448-6.734 9.01-13.697 13.8-18.262 15.168v24.635h28.991v-23.494zm-9.588-11.291c0-3.079.571-5.018 1.484-6.615l2.283-4.219 6.848 11.404H92.537v-.57z" fill="#F0FFF0"/><path d="M212.344 81.14h-66.201v37.636h1.141v-4.79c0-5.36 3.082-7.983 13.583-8.325v15.967c0 6.386.114 6.728-8.903 6.728v24.635h54.673v-24.635c-9.246 0-9.132-.342-9.132-6.728v-15.967c10.501.342 13.697 2.965 13.697 8.325v4.79h1.142V81.141zm38.762 27.258c2.397 0 4.908 1.711 5.365 6.273h29.334v-33.53h-27.85v31.363h-1.142C254.531 85.588 249.965 80 237.295 80c-16.664 0-23.284 13.458-23.284 37.522 0 29.652 17.578 36.609 36.753 36.609 28.192 0 36.296-15.396 35.041-38.32h-1.142c0 6.045-1.027 7.869-21.23 7.869-14.724 0-16.892-3.421-16.892-9.58 0-3.649 1.369-5.702 4.565-5.702zm85.657 13.23c0 6.386.115 6.728-3.88 6.728v24.635H375v-24.635c-7.419 0-7.305-.342-7.305-6.728v-9.238c0-6.387-.114-6.729 7.305-6.729v-24.52h-42.117v24.52c3.995 0 3.88.342 3.88 6.729v3.535h-10.044v-3.535c0-6.387-.114-6.729 3.881-6.729v-24.52h-42.118v24.52c7.42 0 7.305.342 7.305 6.729v9.238c0 6.386.115 6.728-7.305 6.728v24.635H330.6v-24.635c-3.995 0-3.881-.342-3.881-6.728v-4.562h10.044v4.562zM29.991 48.356c-5.935-2.737-8.788-5.702-9.473-9.58h11.185l1.713 2.852c.799 1.368 1.255 2.623 1.255 4.105 0 1.483-.685 2.623-2.397 2.623V71.85h44.971V47.216c-1.37-.456-2.625-1.597-4.908-5.588L65.489 29.88c-.685-1.14-.913-2.395-.913-5.018V0H8.305v24.52h9.588c1.94 0 3.31 1.369 3.31 3.08 0 1.596-.913 3.079-1.94 4.448C12.527 41.058 5.565 45.848 1 47.216V71.85h28.991V48.356zm-9.587-11.29c0-3.08.57-5.018 1.483-6.615l2.283-4.22 6.849 11.405H20.404v-.57zm108.887 10.15c-13.697-6.729-21.687-13.002-22.486-21.213l20.774 13.458c3.196 2.053 3.995 4.105 3.995 7.755V71.85h39.035V36.838c0-8.782 1.941-11.976 5.936-12.432V0h-29.563v24.52c9.246 2.395 22.143 11.975 22.486 20.073v.798h-.114l-19.518-13.115c-4.223-2.852-5.136-3.308-5.136-7.87V0H98.245v24.52c7.419 0 7.305.343 7.305 6.615v2.281c0 8.326-2.055 13.116-7.305 13.8V71.85h31.046V47.216zM238.064 24.52c6.278 0 8.104 2.053 8.104 11.405 0 9.922-4.337 11.291-8.675 11.291h-1.712V24.52h2.283zm2.511 47.33c28.078 0 38.351-11.632 38.351-35.925C278.926 12.66 267.968 0 238.178 0h-40.633v24.52c7.419 0 7.304.343 7.304 6.73v9.237c0 6.387.115 6.729-7.304 6.729V71.85h43.03zm120.644 0V47.216c-7.305 0-7.305-.342-7.305-6.957 7.533-7.3 18.49-14.028 21.115-15.739V0h-25.681v24.52c4.223.685 8.332 3.422 8.332 7.3 0 2.28-1.369 5.018-4.794 7.869l-9.473-8.44c-1.142-1.026-1.712-2.167-1.712-3.193 0-1.939 1.94-3.536 5.364-3.536V0h-47.139v24.52c2.168.229 4.337 1.369 7.761 5.133l9.588 10.492c0 6.729.114 7.071-7.305 7.071V71.85h51.249z" fill="#F0FFF0"/></svg>
